icon/ir/border-left.svg

<svg stroke-width="1.5" viewBox="0 0 24 24" fill="none" xmlns="http://www.w3.org/2000/svg" height="1em" width="1em">
  <path d="M20.01 20L19.9989 20.01" stroke="currentColor" stroke-linecap="round" stroke-linejoin="round"/>
  <path d="M20.01 16L19.9989 16.01" stroke="currentColor" stroke-linecap="round" stroke-linejoin="round"/>
  <path d="M20.01 12L19.9989 12.01" stroke="currentColor" stroke-linecap="round" stroke-linejoin="round"/>
  <path d="M20.01 8L19.9989 8.01" stroke="currentColor" stroke-linecap="round" stroke-linejoin="round"/>
  <path d="M20.01 4L19.9989 4.01" stroke="currentColor" stroke-linecap="round" stroke-linejoin="round"/>
  <path d="M8.01 4L7.99889 4.01" stroke="currentColor" stroke-linecap="round" stroke-linejoin="round"/>
  <path d="M12.01 4L11.9989 4.01" stroke="currentColor" stroke-linecap="round" stroke-linejoin="round"/>
  <path d="M12.01 12L11.9989 12.01" stroke="currentColor" stroke-linecap="round" stroke-linejoin="round"/>
  <path d="M16.01 4L15.9989 4.01" stroke="currentColor" stroke-linecap="round" stroke-linejoin="round"/>
  <path d="M8.01 20L7.99889 20.01" stroke="currentColor" stroke-linecap="round" stroke-linejoin="round"/>
  <path d="M12.01 20L11.9989 20.01" stroke="currentColor" stroke-linecap="round" stroke-linejoin="round"/>
  <path d="M16.01 20L15.9989 20.01" stroke="currentColor" stroke-linecap="round" stroke-linejoin="round"/>
  <path d="M4 4L4 20" stroke="currentColor" stroke-linecap="round" stroke-linejoin="round"/>
</svg>

<svg width="24" height="24" stroke-width="1.5" fill="none" xmlns="http://www.w3.org/2000/svg"><path d="m20.01 20-.011.01M20.01 16l-.011.01M20.01 12l-.011.01M20.01 8l-.011.01M20.01 4l-.011.01M8.01 4l-.011.01M12.01 4l-.011.01M12.01 12l-.011.01M16.01 4l-.011.01M8.01 20l-.011.01M12.01 20l-.011.01M16.01 20l-.011.01M4 4v16" stroke="currentColor" stroke-linecap="round" stroke-linejoin="round"/></svg>
